Dominus_Dark_Funeral/22/apps/easytag.svg

<svg xmlns="http://www.w3.org/2000/svg" width="24" height="24"><defs><linearGradient id="a"><stop offset="0"/><stop offset="1" stop-color="#000004" stop-opacity="0"/></linearGradient></defs><path d="M12.08.21c-.3 0-.52.07-.81.09v5.04h-.95c-.27 0-.53.1-.74.27a1.2 1.2 0 0 0-.19.18l-3.76 5.28-.07 11.57c0 .64.52 1.15 1.16 1.15l3.5-.01 3.48-.02 3.5-.02c.64 0 1.16-.51 1.17-1.15l.07-10.37v-1.16l-.8-1.14-2.9-4.14a1.15 1.15 0 0 0-.92-.45h-.92V.3C12.6.28 12.39.2 12.08.2zm-.81 7.43v.21a.82.82 0 0 0 1.63 0v-.09a1.87 1.82 44.58 0 1 .95 1.62 1.87 1.82 44.58 0 1-1.82 1.81 1.87 1.82 44.58 0 1-1.87-1.87 1.87 1.82 44.58 0 1 .68-1.43 1.87 1.82 44.58 0 1 .43-.25zm3.14 6.08a1.4 1.4 0 0 1 1.42 1.4v.84l.06 3.38a1.4 1.4 0 0 1-1.4 1.42 1.4 1.4 0 0 1-1.42-1.4 1.4 1.4 0 0 1 1.39-1.41l-.03-1.97-4.21.05.04 3.38a1.4 1.4 0 0 1 0 .12 1.4 1.4 0 0 1-1.38 1.43 1.4 1.4 0 0 1-1.43-1.4 1.4 1.4 0 0 1 1.39-1.42l-.03-2.1-.01-.83a1.4 1.4 0 0 1 .6-1.17c.22-.16.5-.25.78-.25l4.23-.07z" fill="#e6e6e6"/></svg>

<?xml version="1.0" encoding="UTF-8" standalone="no"?>
<svg
   xmlns:dc="http://purl.org/dc/elements/1.1/"
   xmlns:cc="http://creativecommons.org/ns#"
   xmlns:rdf="http://www.w3.org/1999/02/22-rdf-syntax-ns#"
   xmlns:svg="http://www.w3.org/2000/svg"
   xmlns="http://www.w3.org/2000/svg"
   xmlns:sodipodi="http://sodipodi.sourceforge.net/DTD/sodipodi-0.dtd"
   xmlns:inkscape="http://www.inkscape.org/namespaces/inkscape"
   width="24"
   height="24"
   version="1.1"
   id="svg11"
   sodipodi:docname="easytag.svg"
   inkscape:version="0.92.4 (5da689c313, 2019-01-14)">
  <metadata
     id="metadata15">
    <rdf:RDF>
      <cc:Work
         rdf:about="">
        <dc:format>image/svg+xml</dc:format>
        <dc:type
           rdf:resource="http://purl.org/dc/dcmitype/StillImage" />
        <dc:title></dc:title>
      </cc:Work>
    </rdf:RDF>
  </metadata>
  <sodipodi:namedview
     pagecolor="#ffffff"
     bordercolor="#666666"
     borderopacity="1"
     objecttolerance="10"
     gridtolerance="10"
     guidetolerance="10"
     inkscape:pageopacity="0"
     inkscape:pageshadow="2"
     inkscape:window-width="1142"
     inkscape:window-height="480"
     id="namedview13"
     showgrid="false"
     inkscape:zoom="9.8333333"
     inkscape:cx="1.2711864"
     inkscape:cy="12"
     inkscape:window-x="0"
     inkscape:window-y="25"
     inkscape:window-maximized="0"
     inkscape:current-layer="svg11" />
  <defs
     id="defs7">
    <linearGradient
       id="a">
      <stop
         offset="0"
         id="stop2" />
      <stop
         offset="1"
         stop-color="#000004"
         stop-opacity="0"
         id="stop4" />
    </linearGradient>
  </defs>
  <path
     d="m 12.08,0.21 c -0.3,0 -0.52,0.07 -0.81,0.09 v 5.04 h -0.95 c -0.27,0 -0.53,0.1 -0.74,0.27 A 1.2,1.2 0 0 0 9.39,5.79 L 5.63,11.07 5.56,22.64 c 0,0.64 0.52,1.15 1.16,1.15 l 3.5,-0.01 3.48,-0.02 3.5,-0.02 c 0.64,0 1.16,-0.51 1.17,-1.15 L 18.44,12.22 V 11.06 L 17.64,9.92 14.74,5.78 A 1.15,1.15 0 0 0 13.82,5.33 H 12.9 V 0.3 C 12.6,0.28 12.39,0.2 12.08,0.2 Z m -0.81,7.43 v 0.21 a 0.82,0.82 0 0 0 1.63,0 V 7.76 a 1.87,1.82 44.58 0 1 0.95,1.62 1.87,1.82 44.58 0 1 -1.82,1.81 1.87,1.82 44.58 0 1 -1.87,-1.87 1.87,1.82 44.58 0 1 0.68,-1.43 1.87,1.82 44.58 0 1 0.43,-0.25 z m 3.14,6.08 a 1.4,1.4 0 0 1 1.42,1.4 v 0.84 l 0.06,3.38 a 1.4,1.4 0 0 1 -1.4,1.42 1.4,1.4 0 0 1 -1.42,-1.4 1.4,1.4 0 0 1 1.39,-1.41 l -0.03,-1.97 -4.21,0.05 0.04,3.38 a 1.4,1.4 0 0 1 0,0.12 1.4,1.4 0 0 1 -1.38,1.43 1.4,1.4 0 0 1 -1.43,-1.4 1.4,1.4 0 0 1 1.39,-1.42 L 8.81,16.04 8.8,15.21 a 1.4,1.4 0 0 1 0.6,-1.17 c 0.22,-0.16 0.5,-0.25 0.78,-0.25 z"
     id="path9"
     inkscape:connector-curvature="0"
     style="fill:#e6e6e6" />
</svg>
